X:1
T:Title
%%score 1 2
L:1/8
Q:1/4=105
M:4/4
K:Eb
V:1 treble nm="Grand Piano, Soprano"
V:2 bass nm="Choir Pad, Managua, J R Sweney,1893"
V:1
 [EG]>[FA] [GB]2 [GB]>[GB] [GB]2 | [Ge]2 [GB]4 [EG]2 | [EB]2 [DA]2 [Ad]>[Ac] [GB]2 | %3
w: By~John~Robson~Sweney,~1893 * * * * *|||
 [FA]>[FA] [EG]6 | [EG][FA] [GB]2 [GB]>[GB] [Ge]2 | [Bd]>[Ac] [GB]4 [EG]2 | %6
w: |||
 [EB]2 [DB]2 [FA]>[EG] [DF]2 | [EG]>[B,F] [B,E]6 | [EB]2 [DA]2 [FA]>[EG] [EG]2 | %9
w: |||
 [Ac]>[Ad] [Ge]4 [GB]2 | [Ge]2 [Ad]2 [Ac]>[GB] [FA]2 | [GB]>[FA] [EG]6 | %12
w: |||
 [EG][FA] [GB]2 [GB]>[GB] [Ge]2 | [Ge]>[Ge] [Ae]4 [Ac]2 | [Ec]2 [EB]2 [DA]>[EG] [DF]2 | %15
w: |||
 [EG]>[B,F] [B,E]6- | [B,E]2 z2 z4 |] %17
w: ||
V:2
 [E,B,]>[E,B,] [E,E]2 [E,E]>[E,E] [E,E]2 | [E,B,]2 [E,E]4 [E,B,]2 | %2
 [E,G,]2 [B,,F,]2 [B,,B,]>[B,,B,] [B,,B,]2 | [B,,B,]>[B,,B,] [E,B,]6 | %4
 [E,B,]2 [E,E]2 [E,E]>[E,E] [E,B,]2 | [E,C]>[E,D] [E,E]4 [E,B,]2 | %6
 [E,G,]2 [B,,F,]2 [B,,B,]>[B,,B,] [B,,B,]2 | [B,,B,]>[B,,B,] [E,G,]6 | %8
 [E,G,]2 [B,,F,]2 [B,,B,]>[B,,B,] [B,,B,]2 | [B,,B,]>[B,,B,] [E,B,]4 [E,E]2 | %10
 [E,B,]2 B,2 B,>B, B,2 | [B,,B,]>[B,,B,] [E,B,]6 | [E,B,]2 [E,E]2 [E,E]>[E,E] [E,_D]2 | %13
 [E,_D]>[E,D] [A,C]4 [A,E]2 | [A,,A,]2 [B,,G,]2 [B,,F,]>[B,,B,] [B,,B,]2 | %15
 [B,,B,]>[B,,A,] [E,G,]6- | [E,G,]2 z2 z4 |] %17

